X:331
T: Renmin gongshe jiushihao
N: C1830
O: China,Ningxia Yenchuan
S: I, 162]
N: Han
R: Xiaodiao]
M: 2/4
L: 1/16
K: Bb
c3dc2b2 | g6f2 | c3dc2b2 | g8 |
c2c2c2c2 | b3cb2g2 | f2f2g2d2 | c8 |
f2f2=e2f2 | g2d2c4 | f2=e2f2g2 | c8 |
g2c4c2 | c2f2b2g2 | f2g2=e2c2 | b4b2g2 | f2f2g2d2 | c8

@@@ Tune index: 6886
